X:119
T:St. Helena. RH.119
R:Set Tune
S:Rev.R.Harrison’s MS,c1815,Cumbria
O:England
A:Temple Sowerby,Cumbria
Z:vmp.Simon Wilson. Review PJH, 2008.
M:2/4
L:1/16
Q:1/4=100
K:D
A2A2|d2d2 f2f2|a4 ba^ga|g2e2 fe^de|c2A2 A2A2|!
d2d2 f2f2|a4ba^ga|g2e2 fedc|d4||!
[f2a2][f2a2]|baga [f2a2][f2a2]|agfg [f2a2][f2a2]|\
baga [f2a2][f2a2]|[f4a4] [f2a2][f2a2]|!
baga [f2a2][f2a2]|agfa [f2a2][f2a2]|\
baga bagf|([d2g2][c2e2]) A2B2|!
cAdA eAfA|e2 ac’ ba^gf|e2e2 {e}dcde|d2c2 A2B2|!
cAdA eAfA|e2 ac’ ba^gf|ecae edcB|A4|]

